X:1
T:His Grace Is Sufficient for Me (Morris)
T:His Grace Is Sufficient for Me (Morris)
T:Lelia Naylor Morris
T:Lelia Naylor Morris, 1915
T:Public Domain Courtesy of the Cyber Hymnal™
T:Public Domain Courtesy of the Cyber Hymnal™
C:Lelia Naylor Morris
Z:Public Domain
Z:Courtesy of the Cyber Hymnal™
%%score ( 1 2 ) ( 3 4 )
L:1/8
Q:1/4=180
M:6/4
K:Ab
V:1 treble 
V:2 treble 
V:3 bass 
V:4 bass 
V:1
 [CE]2 | [Ec]2 [Ec]2 [Ec]2 [EA]2 [EA]2 [EA]2 | [FB]2 [FB]2 [FB]2 [DF]4 [DF]2 | %3
w: 1.~“I’ve|an- chored my soul in the|Hav- en of Rest”; I’ve|
w: 2.~Wher-|ev- er my lot up- on|earth may be cast, Mid|
w: 3.~The|bil- lows in fu- ry a-|round me may beat; The|
w: 4.~And|when I have fin- ished life’s|voy- age at last, When|
 [CE]2 [CA]2 [CA]2 [EA]2 [EB]2 [Ec]2 | [Ed]2 [Ed]2 [Ec]2 [EB]4 [DE]2 | %5
w: pil- lowed my head on the|dear Sav- ior’s breast; I’m|
w: storm and mid tem- pest He|hold- eth me fast; No|
w: “Cleft in the Rock” is my|bless- èd re- treat; My|
w: safe in the har- bor my|an- chor is cast, The|
 [CE]2 [=B,=D]2 [CE]2 [Ec]2 [E=B]2 [_GA]2 | %6
w: trust- ing His prom- ise of|
w: harm can be- tide while His|
w: Shield and De- fend- er for-|
w: theme of my prais- es for-|
 [FB]2 [FA]2 [DF]2 [DA]4 [DF]2 [CE]2 [EA]2 [EB]2 [Ec]2 [Fd]2 [Ec]2 | [=DB] [DF]3 [_DB]2 [CA]4 || %8
w: mer- cy so free; Fear not, “For My grace is suf-|fi- cient for thee.”|
w: dear face I see, And cling to the hand that was|wound- ed for me.|
w: ev- er is He; The Sav- ior Whose grace is suf-|fi- cient for me.|
w: ev- er shall be, God’s grace, which is al- ways suf-|fi- cient for me.|
"^Refrain" [Ac]2 | [Ac]3 [GB] [FA]2 [FA]2 [=EG]2 [CF]2 | [CF]2 [C=E]2 [CF]2 [EG]4 C2 | %11
w: |||
w: At|home or a- broad, on the|land or the sea, God’s|
w: |||
w: |||
 [Ac]3 [GB] [FA]2 [FA]2 [=EG]2 [FA]2 | [AB]2 [Ac]2 [A=d]2 [Ge]4 [B_d]2 | %13
w: ||
w: won- der- ful grace is suf-|fi- cient for me; I’m|
w: ||
w: ||
 [Ac]3 [A=B] [Ac]2 [Ae]2 [Ac]2 [_GA]2 | [FB]2 [FA]2 [FB]2 [=Ec]4 [_Ed]2 | %15
w: ||
w: find- ing it true that wher-|e’er I may be, His|
w: ||
w: ||
 [Ec]3 [EB] [EA]2 [EA] [DG]3 [CA]2 | (B4 c2 [Ed]4) [DE]2 | ([CE]6- [CE]2 [=B,=D]2) [CE]2 | %18
w: |||
w: grace is suf- fi- cient for|me, * * For|me, * * for|
w: |||
w: |||
 ([DF]6 [FA]4) [FB]2 | [Ec]2 [_Ge]2 [Fd]2 [Fc] [CE]3 [DB]2 | [CA]8- [CA]2 |] %21
w: |||
w: me, * His|grace is suf- fi- cient for|me. *|
w: |||
w: |||
V:2
 x2 | x12 | x12 | x12 | x12 | x12 | x24 | x10 || x2 | x12 | x10 C2 | x12 | x12 | x12 | x12 | x12 | %16
 E6 x6 | x12 | x12 | x12 | x10 |] %21
V:3
 [A,,A,]2 | [A,,A,]2 [A,,A,]2 [A,,A,]2 [A,,C]2 [A,,C]2 [A,,C]2 | %2
 [D,D]2 [D,D]2 [D,D]2 [D,A,]4 [D,A,]2 | A,2 A,2 A,2 [C,A,]2 [B,,G,]2 [A,,A,]2 | %4
 [G,,B,]2 [G,,B,]2 [A,,A,]2 [E,G,]4 [E,G,]2 | %5
 [A,,A,]2 [A,,A,]2 [A,,A,]2 [A,,A,]2 [B,,G,]2 [C,A,]2 | %6
 [D,A,]2 [D,D]2 [D,A,]2 [D,F,]4 [D,A,]2 [E,A,]2 [C,A,]2 [E,G,]2 A,2 A,2 A,2 | %7
 [B,,A,] [B,,A,]3 G,2 [A,,E,A,]4 || [F,A,]2 | [F,A,]3 [G,B,] [A,C]2 [A,C]2 [B,D]2 [A,C]2 | %10
 [A,C]2 [G,B,]2 [F,A,]2 [C,C]4 [C,C]2 | [F,A,]3 [G,B,] [A,C]2 [A,C]2 [B,D]2 [A,C]2 | %12
 [F,=D]2 [F,D]2 [B,,B,]2 [E,B,]4 [E,E]2 | [A,E]3 [A,=D] [A,E]2 [A,C]2 [A,E]2 [A,C]2 | %14
 [D,D]2 [D,A,]2 [D,F,]2 [C,G,]4 [B,,G,]2 | [E,A,]3 [E,D] [E,C]2 [E,C] [E,B,]3 [E,A,]2 | %16
 (G,4 A,2 [E,B,]4) [E,G,]2 | ([A,,A,] [A,,A,]3 [A,,A,]2 [A,,A,]4) [A,,A,]2 | %18
 ([D,A,] [D,A,]3 [D,A,]2 [D,D]4) [D,A,]2 | [E,A,]2 [C,A,]2 [D,A,]2 [E,A,] [E,A,]3 [E,G,]2 | %20
 [A,,E,A,]8- [A,,E,A,]2 |] %21
V:4
 x2 | x12 | x12 | A,2 A,2 A,2 x6 | x12 | x12 | x18 A,2 A,2 A,2 | x4 G,2 x4 || x2 | x12 | x12 | %11
 x12 | x12 | x12 | x12 | x12 | E,6 x6 | x12 | x12 | x12 | x10 |] %21

